X:1
T: Julian's Jig
C:Muriel A Johstone
R:Jig
%Q:180
K:A
M:6/8
L:1/16
|:e2|c2A2A2 B2A2A2|c2A2A2 F4A2|E2e2d2 c2B2A2|F2B2c2 d4D2|
C2A2A2 D2A2A2|E2A2A2 F4f2|e2c2A2 E2d2B2|c2A2A2 A4:|
g2|a3gf2 e4c2|def2d2 B4d2|c2e2E2 d4c2|B2G2E2 E4g2|
a3gf2 e4c2|def2d2 B4d2|e2c2A2 E2d2B2|c2A2A2 A4f2|
e2a2e2 c4e2|def2d2 B4d2|c2e2c2 A3GA2|B2G2E2 E4D2|
C2A2A2 D2A2A2|E2A2A2 F4f2|e2c2A2 E2d2B2|c2A2A2 A4||
